!! 00000] TT[WS
!!!OTL: Xiangsi ling
!!!ARE: Asia, China,ÿShanxi Heshun
!! Ethnic Group: Han
!! WI, 109
!!!SCT: J0127
!!!YEM: Copyright 1995, estate of Helmut Schaffrath.
**kern
*ICvox
*Ivox
*M2/4
*k[f#c#]
*D:
{8r
8ee
8dd
8cc#
=1
8b
16a
16f#
8b
8e
=2
8r
8dd
8cc#
8b
=3
8a
16g
16f#
8e
8f#}
=4
{4a
4a
=5
8dd
8cc#
8b
8a
=6
8.d
16c#
8B
8d
=7
4e
4r}
=8
{4e
4a
=9
4g
8f#
8e
=10
4d
8c#
8B
=11
2e}
=12
{8dd
8cc#
8b
8a
=13
8dd
8g
8f#
8e
=14
4a
4r}
==
!!!AGN: Xiaodiao. Qingge
!!!ONB: ESAC (Essen Associative Code) Database: CHINA
!!!AMT: simple duple
!!!AIN: vox
!!!EED: Helmut Schaffrath
!!!EEV: 1.0
*-
